X:1
T:Festubert, 12.10.12.10.8.12
T:Alfred Herbert Brewer, 1916
T:Festubert, 12.10.12.10.8.12
T:Public Domain
C:Alfred Herbert Brewer, 1916
Z:Public Domain
%%score ( 1 2 ) ( 3 4 )
L:1/8
M:4/4
K:G
V:1 treble 
V:2 treble 
V:3 bass 
V:4 bass 
V:1
 [B,D]2 | [CE]2 [CG]2 [DG]2 [DA]2 | [DB]6 [DF]2 | [B,G]2 [DA]2 [DB]2 [Ec]2 | [DA]8 | %5
 [Ec]4 [^DB]2 [FA]2 | [EG]2 [^DF]2 [EG]2 [FA]2 | [GB]6 [G^c]2 | [Fd]6 [=FA]2 | %9
 [EA]2 =F2 [EA]2 [^GB]2 | [Ac]6 [Ec]2 | [=Fc]2 [FA]2 [Gc]2 [Gd]2 | [Ge]8 | G2 F2 [Gd]2 [Ac]2 | %14
 [GB]2 [FA]2 [EG]2 [DF]2 | [DE]4 [^CE]4 | D6 D2 | [CE]6 [B,D]2 | [CE]2 [CG]2 [DG]2 [FA]2 | %19
 [GB]6 [FA]2 | [GB]2 [Gc]2 [Gd]2 [Ge]2 | [Fd]2 [FB]2 [EG]2 [Ec]2 | (E2 G2 F2) [DA]2 | [DG]6 |] %24
V:2
 x2 | x8 | x8 | x8 | x8 | x8 | x8 | x8 | x8 | x2 =F2 x4 | x8 | x8 | x8 | e4 x4 | x8 | x8 | D6 D2 | %17
 x8 | x8 | x8 | x8 | x8 | A6 x2 | x6 |] %24
V:3
 [G,,G,]2 | [C,G,]2 [E,G,]2 [B,,G,]2 [D,F,]2 | G,6 [D,A,]2 | [E,G,]2 [D,F,]2 G,2 [C,G,]2 | %4
 [D,F,]8 | (A,2 G,2) [B,,F,]2 [^D,B,]2 | [E,B,]2 [B,,B,]2 [E,B,]2 [D,D]2 | %7
 (G,2 F,2 [E,E]2) [E,G,]2 | [D,A,]6 [D,A,]2 | [C,A,]2 [D,B,]2 [E,C]2 [E,E]2 | [A,E]6 [A,C]2 | %11
 [=F,A,]2 [F,C]2 [E,C]2 [D,B,]2 | [C,C]8 | [A,,C]4 [B,,D]2 [C,E]2 | [D,D]2 [D,C]2 [E,B,]2 [F,A,]2 | %15
 [G,B,]4 A,4 | [D,F,]6 [B,,G,]2 | [C,G,]6 [G,,G,]2 | [C,G,]2 [E,G,]2 [B,,G,]2 [D,D]2 | %19
 [G,D]6 [D,D]2 | [G,D]2 [E,C]2 [B,,G,]2 [C,C]2 | [D,A,]2 [D,D]2 [E,B,]2 [A,,A,]2 | %22
 ([C,A,]4 D2) C2 | [G,B,]6 |] %24
V:4
 x2 | x8 | G,6 x2 | x4 G,2 x2 | x8 | A,,4 x4 | x8 | D4 x4 | x8 | x8 | x8 | x8 | x8 | x8 | x8 | %15
 x4 A,4 | x8 | x8 | x8 | x8 | x8 | x8 | x4 D,4 | x6 |] %24

